X:432
T:Man With Two Women, The
B:Battlefield Band, Forward With Scotland's Past
Z:Nigel Gatherer
M:4/4
L:1/8
K:D
agfa- aafa | gece Aceg | agfa- aafa | gecA Bd d2 :|
ABcd e2 ag | fecd efec | ABcd e2 ag | fecA Bd d2 :|]
